speaker-wireless.svg

<svg fill="currentColor" viewBox="0 0 24 24"><path d="m20.07 19.07-1.41-1.41A7.96 7.96 0 0 0 21 12c0-2.22-.89-4.22-2.34-5.66l1.41-1.41A9.97 9.97 0 0 1 23 12c0 2.76-1.12 5.26-2.93 7.07m-2.83-2.83-1.41-1.41A4 4 0 0 0 17 12c0-1.11-.45-2.11-1.17-2.83l1.41-1.41A5.98 5.98 0 0 1 19 12c0 1.65-.67 3.15-1.76 4.24M4 3h8a2 2 0 0 1 2 2v14a2 2 0 0 1-2 2H4a2 2 0 0 1-2-2V5a2 2 0 0 1 2-2m4 2a2 2 0 0 0-2 2 2 2 0 0 0 2 2 2 2 0 0 0 2-2 2 2 0 0 0-2-2m0 6a4 4 0 0 0-4 4 4 4 0 0 0 4 4 4 4 0 0 0 4-4 4 4 0 0 0-4-4m0 2a2 2 0 0 1 2 2 2 2 0 0 1-2 2 2 2 0 0 1-2-2 2 2 0 0 1 2-2"/></svg>

<svg  viewBox="0 0 24 24" fill="currentColor"><path  d="M20.07,19.07L18.66,17.66C20.11,16.22 21,14.21 21,12C21,9.78 20.11,7.78 18.66,6.34L20.07,4.93C21.88,6.74 23,9.24 23,12C23,14.76 21.88,17.26 20.07,19.07M17.24,16.24L15.83,14.83C16.55,14.11 17,13.11 17,12C17,10.89 16.55,9.89 15.83,9.17L17.24,7.76C18.33,8.85 19,10.35 19,12C19,13.65 18.33,15.15 17.24,16.24M4,3H12A2,2 0 0,1 14,5V19A2,2 0 0,1 12,21H4A2,2 0 0,1 2,19V5A2,2 0 0,1 4,3M8,5A2,2 0 0,0 6,7A2,2 0 0,0 8,9A2,2 0 0,0 10,7A2,2 0 0,0 8,5M8,11A4,4 0 0,0 4,15A4,4 0 0,0 8,19A4,4 0 0,0 12,15A4,4 0 0,0 8,11M8,13A2,2 0 0,1 10,15A2,2 0 0,1 8,17A2,2 0 0,1 6,15A2,2 0 0,1 8,13Z"/></svg>
